X: 33
T: Praeludia organi op. 5 – Andante
C: Franciszek Walczyński
%%abc-version 2.0
%%abcx-abcm2ps-target-version 5.9.1 (29 Sep 2008)
%%abc-creator hum2abc beta
%%abcx-conversion-date 2021/10/04 07:38:41
%%abc-edited-by Andrzej Borzym
%%abc-edited-by Krzysztof Stępień
%%abcx-initial-encoding-date 2021-07-26
%%humdrum-veritas 2413924287
%%humdrum-veritas-data 1218344711
%%linebreak <none>
%%barnumbers 0
L: 1/4
M: C
N: Derived from pl-kozmzk--mzk-m-159--022_walczynski-franciszek--praeludia-organi-op-5-andante.krn
Q: "22. Andante."
%%staves {1 2}
V: 1 clef=treble
V: 2 clef=bass
K: A
[V:1] cABA & F4- | 
[V:2] A,CDC & F,4 | 
[V:1] G2F2 & F^EF2 | 
[V:2] B,3A, & C,2D,2 | 
[V:1] G2Ad & D2CF/G/ | 
[V:2] G,B,A,B, & E,2F,B,, | 
[V:1] c2!fermata!B2 & A2G2 | 
[V:2] C^DE2 & E,2!fermata!E,2 | 
[V:1] c2f=f & G2A2 | 
[V:2] ^E2C2 & CB,^A,2 | 
[V:1] d^de=d & F2E2 | 
[V:2] B,2-B,2 & B,=A,^G,2 | 
[V:1] cBAB & EGFG- | 
[V:2] C3D & A,^E,F,B,, | 
[V:1] A2G2 & GF2^E | 
[V:2] C3B,- & C,4 | 
[V:1] F4- & C2DB, | 
[V:2] B,A,B,G, & F,,4- | 
[V:1] F3G & ^A,CB,D | 
[V:2] F,E,D,B,, & F,,4- | 
[V:1] !fermata!^A4 & C4 |]  
[V:2] C,4 & !fermata!F,,4 |]  


